build/TerriaJS/images/icons/remotefile.svg

<?xml version="1.0" encoding="UTF-8" standalone="no"?>
<svg width="22px" height="21px" viewBox="0 0 22 21" version="1.1" xmlns="http://www.w3.org/2000/svg" xmlns:xlink="http://www.w3.org/1999/xlink">
    <!-- Generator: Sketch 43.2 (39069) - http://www.bohemiancoding.com/sketch -->
    <title>path-1</title>
    <desc>Created with Sketch.</desc>
    <defs>
        <path d="M5,6 L4.75,6 C3.21638786,6 2,7.13529533 2,8.5 C2,9.2406078 2.35687492,9.9321837 2.97412801,10.4079651 C3.4115493,10.7451313 3.49282208,11.3730585 3.15565585,11.8104798 C2.81848963,12.2479011 2.19056238,12.3291739 1.7531411,11.9920077 C0.65548811,11.145932 0,9.8756836 0,8.5 C0,5.99871142 2.14147652,4 4.75,4 L5.34141142,4 C6.16508423,1.66961525 8.38756235,0 11,0 C13.6124377,0 15.8349158,1.66961525 16.6585886,4 L17.25,4 C19.8585235,4 22,5.99871142 22,8.5 C22,11.0012886 19.8585235,13 17.25,13 C16.6977153,13 16.25,12.5522847 16.25,12 C16.25,11.4477153 16.6977153,11 17.25,11 C18.7836121,11 20,9.8647047 20,8.5 C20,7.13529533 18.7836121,6 17.25,6 L17,6 L15,6 C15,3.790861 13.209139,2 11,2 C8.790861,2 7,3.790861 7,6 L5,6 Z M5,16 L5,12 C5,11.4477153 5.44771525,11 6,11 L10,11 C10.5522847,11 11,11.4477153 11,12 L11,17 C11,17.5522847 10.5522847,18 10,18 C9.4477153,18 9,17.5522847 9,17 L9,13 L7,13 L7,17 C7,17.5522847 6.55228475,18 6,18 L4,18 C3.44771525,18 3,17.5522847 3,17 C3,16.4477153 3.44771525,16 4,16 L5,16 Z M15,16 L18,16 C18.5522847,16 19,16.4477153 19,17 C19,17.5522847 18.5522847,18 18,18 L14,18 C13.4477153,18 13,17.5522847 13,17 L13,12 C13,11.4477153 13.4477153,11 14,11 C14.5522847,11 15,11.4477153 15,12 L15,16 Z M21,18 C20.4477153,18 20,17.5522847 20,17 C20,16.4477153 20.4477153,16 21,16 C21.5522847,16 22,16.4477153 22,17 C22,17.5522847 21.5522847,18 21,18 Z M10,21 C9.4477153,21 9,20.5522847 9,20 C9,19.4477153 9.4477153,19 10,19 C10.5522847,19 11,19.4477153 11,20 C11,20.5522847 10.5522847,21 10,21 Z M1,18 C0.44771525,18 0,17.5522847 0,17 C0,16.4477153 0.44771525,16 1,16 C1.55228475,16 2,16.4477153 2,17 C2,17.5522847 1.55228475,18 1,18 Z" id="path-1"></path>
    </defs>
    <g id="Page-1" stroke="none" stroke-width="1" fill-rule="evenodd">
        <g id="cloud-24">
            <g id="colour/@black-Clipped">
                <mask id="mask-2" fill="white">
                    <use xlink:href="#path-1"></use>
                </mask>
                <use id="path-1" xlink:href="#path-1"></use>
            </g>
        </g>
    </g>
</svg>

<svg xmlns="http://www.w3.org/2000/svg" width="22" height="21">
    <defs>
        <path id="a" d="M5 6h-.25C3.216 6 2 7.135 2 8.5c0 .74.357 1.432.974 1.908a1 1 0 1 1-1.22 1.584C.654 11.146 0 9.876 0 8.5 0 5.999 2.141 4 4.75 4h.591A6.002 6.002 0 0 1 16.66 4h.591C19.859 4 22 5.999 22 8.5S19.859 13 17.25 13a1 1 0 0 1 0-2C18.784 11 20 9.865 20 8.5S18.784 6 17.25 6H15a4 4 0 1 0-8 0zm0 10v-4a1 1 0 0 1 1-1h4a1 1 0 0 1 1 1v5a1 1 0 0 1-2 0v-4H7v4a1 1 0 0 1-1 1H4a1 1 0 0 1 0-2zm10 0h3a1 1 0 0 1 0 2h-4a1 1 0 0 1-1-1v-5a1 1 0 0 1 2 0zm6 2a1 1 0 1 1 0-2 1 1 0 0 1 0 2m-11 3a1 1 0 1 1 0-2 1 1 0 0 1 0 2m-9-3a1 1 0 1 1 0-2 1 1 0 0 1 0 2"/>
    </defs>
    <use fill-rule="evenodd" href="#a"/>
</svg>
